icons/solid/collection.svg

<svg width="24" height="24" viewBox="0 0 24 24" fill="none" xmlns="http://www.w3.org/2000/svg">
<path fill-rule="evenodd" clip-rule="evenodd" d="M8 3C6.89543 3 6 3.89543 6 5H18C18 3.89543 17.1046 3 16 3H8ZM4 8C4 6.89543 4.89543 6 6 6H18C19.1046 6 20 6.89543 20 8H4ZM4 9C2.89543 9 2 9.89543 2 11V19C2 20.1046 2.89543 21 4 21H20C21.1046 21 22 20.1046 22 19V11C22 9.89543 21.1046 9 20 9H4Z" fill="currentColor"/>
</svg>

<svg width="24" height="24" fill="none" xmlns="http://www.w3.org/2000/svg"><path fill-rule="evenodd" clip-rule="evenodd" d="M8 3a2 2 0 00-2 2h12a2 2 0 00-2-2H8zM4 8a2 2 0 012-2h12a2 2 0 012 2H4zm0 1a2 2 0 00-2 2v8a2 2 0 002 2h16a2 2 0 002-2v-8a2 2 0 00-2-2H4z" fill="currentColor"/></svg>
